static/img/kroki/80f2f4e37ff5ec51ae7903f22de02b93.svg

<?xml version="1.0" encoding="us-ascii" standalone="no"?><svg xmlns="http://www.w3.org/2000/svg" xmlns:xlink="http://www.w3.org/1999/xlink" contentStyleType="text/css" height="152px" preserveAspectRatio="none" style="width:247px;height:152px;" version="1.1" viewBox="0 0 247 152" width="247px" zoomAndPan="magnify"><defs/><g><!--class azure_storage_account--><g id="elem_azure_storage_account"><rect codeLine="23" fill="#3D176E" height="39.7891" id="azure_storage_account" rx="2.5" ry="2.5" style="stroke:#000D19;stroke-width:0.5;" width="233" x="7" y="7"/><ellipse cx="22" cy="26.8945" fill="#ADD1B2" rx="11" ry="11" style="stroke:#181818;stroke-width:1.0;"/><path d="M24.9688,32.5352 Q24.3906,32.832 23.75,32.9727 Q23.1094,33.1289 22.4063,33.1289 Q19.9063,33.1289 18.5781,31.4883 Q17.2656,29.832 17.2656,26.707 Q17.2656,23.582 18.5781,21.9258 Q19.9063,20.2695 22.4063,20.2695 Q23.1094,20.2695 23.75,20.4258 Q24.4063,20.582 24.9688,20.8789 L24.9688,23.5977 Q24.3438,23.0195 23.75,22.7539 Q23.1563,22.4727 22.5313,22.4727 Q21.1875,22.4727 20.5,23.5508 Q19.8125,24.6133 19.8125,26.707 Q19.8125,28.8008 20.5,29.8789 Q21.1875,30.9414 22.5313,30.9414 Q23.1563,30.9414 23.75,30.6758 Q24.3438,30.3945 24.9688,29.8164 L24.9688,32.5352 Z " fill="#000000"/><text fill="#D9B8FF" font-family="Helvetica" font-size="17" lengthAdjust="spacing" textLength="191" x="41" y="32.7798">azure_storage_account</text></g><!--class azure_storage_queue--><g id="elem_azure_storage_queue"><rect codeLine="26" fill="#3D176E" height="39.7891" id="azure_storage_queue" rx="2.5" ry="2.5" style="stroke:#000D19;stroke-width:0.5;" width="220" x="13.5" y="106.79"/><ellipse cx="28.5" cy="126.6845" fill="#ADD1B2" rx="11" ry="11" style="stroke:#181818;stroke-width:1.0;"/><path d="M31.4688,132.3252 Q30.8906,132.622 30.25,132.7627 Q29.6094,132.9189 28.9063,132.9189 Q26.4063,132.9189 25.0781,131.2783 Q23.7656,129.622 23.7656,126.497 Q23.7656,123.372 25.0781,121.7158 Q26.4063,120.0595 28.9063,120.0595 Q29.6094,120.0595 30.25,120.2158 Q30.9063,120.372 31.4688,120.6689 L31.4688,123.3877 Q30.8438,122.8095 30.25,122.5439 Q29.6563,122.2627 29.0313,122.2627 Q27.6875,122.2627 27,123.3408 Q26.3125,124.4033 26.3125,126.497 Q26.3125,128.5908 27,129.6689 Q27.6875,130.7314 29.0313,130.7314 Q29.6563,130.7314 30.25,130.4658 Q30.8438,130.1845 31.4688,129.6064 L31.4688,132.3252 Z " fill="#000000"/><text fill="#D9B8FF" font-family="Helvetica" font-size="17" lengthAdjust="spacing" textLength="178" x="47.5" y="132.5698">azure_storage_queue</text></g><!--link azure_storage_account to azure_storage_queue--><g id="link_azure_storage_account_azure_storage_queue"><path codeLine="29" d="M123.5,47.22 C123.5,64.36 123.5,83.27 123.5,100.41 " fill="none" id="azure_storage_account-to-azure_storage_queue" style="stroke:#1A83AF;stroke-width:2.0;"/><polygon fill="#1A83AF" points="123.5,106.41,127.5,97.41,123.5,101.41,119.5,97.41,123.5,106.41" style="stroke:#1A83AF;stroke-width:2.0;"/></g><!--SRC=[XT1HJy8m40VmztsA9dicsLnqxCLaBY7wGepuPWmvrYiqREsytYHW_Ew2gAdRWDV-V-tzhoijKM3Ty5RKM2-GNE3MsZH0K8kSo6uAMraIeLAWahGRJgpXYs0ADOfxhDwHTGbTyRpIvTgWS-BAY-wWN2_9jaOUdsS2u_OH6lPKKO5pEJFfHSlebP7POgnKLtOV3HCPfpVOOvOaqW-9eaZ6MPTS77LsxpynqpiKiVzfKylOgzaRyQtEjZm8hsHlqT_yPCT7a5ARfRZspfwEdSWW_JkVhK3QpK4hg9m_nZ4IMjusMFIsmcmiLJg87qxXe3nydO1TIpXtR0cME8Uot4iM7q7mEGZUMcpn60_V7Bs4SJvEyidhw7ReRl05]--></g></svg>

<svg xmlns="http://www.w3.org/2000/svg" width="247" height="152" viewBox="0 0 247 152"><rect width="233" height="39.789" x="7" y="7" fill="#3D176E" rx="2.5" ry="2.5" style="stroke:#000d19;stroke-width:.5"/><circle cx="22" cy="26.895" r="11" fill="#ADD1B2" style="stroke:#181818;stroke-width:1"/><path d="M24.969 32.535q-.578.297-1.219.438-.64.156-1.344.156-2.5 0-3.828-1.64-1.312-1.657-1.312-4.782t1.312-4.781q1.328-1.656 3.828-1.656.703 0 1.344.156.656.156 1.219.453v2.719q-.625-.578-1.219-.844-.594-.281-1.219-.281-1.343 0-2.031 1.078-.687 1.062-.687 3.156t.687 3.172q.688 1.062 2.031 1.062.625 0 1.219-.265.594-.281 1.219-.86z"/><text x="41" y="32.78" fill="#D9B8FF" font-family="Helvetica" font-size="17" textLength="191">azure_storage_account</text><rect width="220" height="39.789" x="13.5" y="106.79" fill="#3D176E" rx="2.5" ry="2.5" style="stroke:#000d19;stroke-width:.5"/><circle cx="28.5" cy="126.684" r="11" fill="#ADD1B2" style="stroke:#181818;stroke-width:1"/><path d="M31.469 132.325q-.578.297-1.219.438-.64.156-1.344.156-2.5 0-3.828-1.64-1.312-1.657-1.312-4.782t1.312-4.781q1.328-1.656 3.828-1.656.703 0 1.344.156.656.156 1.219.453v2.719q-.625-.579-1.219-.844-.594-.281-1.219-.281-1.343 0-2.031 1.078-.687 1.062-.687 3.156t.687 3.172q.688 1.062 2.031 1.062.625 0 1.219-.265.594-.281 1.219-.86z"/><text x="47.5" y="132.57" fill="#D9B8FF" font-family="Helvetica" font-size="17" textLength="178">azure_storage_queue</text><path fill="none" d="M123.5 47.22v53.19" style="stroke:#1a83af;stroke-width:2"/><path fill="#1A83AF" d="m123.5 106.41 4-9-4 4-4-4z" style="stroke:#1a83af;stroke-width:2"/></svg>
